flaticon/office/diagram-1.svg

<svg xmlns="http://www.w3.org/2000/svg" width="32" height="32" viewBox="0 0 24 24">
    <path d="M 22.199219 0.800781 L 1.800781 0.800781 C 0.800781 0.800781 0 1.601562 0 2.601562 L 0 16.601562 C 0 17.601562 0.800781 18.398438 1.800781 18.398438 L 9.480469 18.398438 L 8.878906 20.800781 L 8.800781 20.800781 C 7.679688 20.800781 6.800781 21.679688 6.800781 22.800781 C 6.800781 23.039062 6.960938 23.199219 7.199219 23.199219 L 16.800781 23.199219 C 17.039062 23.199219 17.199219 23.039062 17.199219 22.800781 C 17.199219 21.679688 16.320312 20.800781 15.199219 20.800781 L 15.121094 20.800781 L 14.519531 18.398438 L 22.199219 18.398438 C 23.199219 18.398438 24 17.601562 24 16.601562 L 24 2.601562 C 24 1.601562 23.199219 0.800781 22.199219 0.800781 Z M 0.800781 2.601562 C 0.800781 2.039062 1.238281 1.601562 1.800781 1.601562 L 22.199219 1.601562 C 22.761719 1.601562 23.199219 2.039062 23.199219 2.601562 L 23.199219 14.398438 L 0.800781 14.398438 Z M 16.359375 22.398438 L 7.679688 22.398438 C 7.839844 21.921875 8.28125 21.601562 8.800781 21.601562 L 15.238281 21.601562 C 15.761719 21.601562 16.199219 21.921875 16.359375 22.398438 Z M 14.28125 20.800781 L 9.71875 20.800781 L 10.320312 18.398438 L 13.679688 18.398438 Z M 23.199219 16.601562 C 23.199219 17.160156 22.761719 17.601562 22.199219 17.601562 L 1.800781 17.601562 C 1.238281 17.601562 0.800781 17.160156 0.800781 16.601562 L 0.800781 15.199219 L 23.199219 15.199219 Z M 23.199219 16.601562"/>
    <path d="M 18.398438 9.238281 L 18.398438 7.601562 L 12.398438 7.601562 L 12.398438 6 L 13.601562 6 L 13.601562 2.800781 L 10.398438 2.800781 L 10.398438 6 L 11.601562 6 L 11.601562 7.601562 L 5.601562 7.601562 L 5.601562 9.238281 C 4.675781 9.417969 4 10.21875 4 11.199219 C 4 12.320312 4.878906 13.199219 6 13.199219 C 7.121094 13.199219 8 12.320312 8 11.199219 C 8 10.21875 7.324219 9.417969 6.398438 9.238281 L 6.398438 8.398438 L 11.601562 8.398438 L 11.601562 9.238281 C 10.675781 9.417969 10 10.21875 10 11.199219 C 10 12.320312 10.878906 13.199219 12 13.199219 C 13.121094 13.199219 14 12.320312 14 11.199219 C 14 10.21875 13.324219 9.417969 12.398438 9.238281 L 12.398438 8.398438 L 17.601562 8.398438 L 17.601562 9.238281 C 16.675781 9.417969 16 10.21875 16 11.199219 C 16 12.320312 16.878906 13.199219 18 13.199219 C 19.121094 13.199219 20 12.320312 20 11.199219 C 20 10.21875 19.324219 9.417969 18.398438 9.238281 Z M 11.199219 3.601562 L 12.800781 3.601562 L 12.800781 5.199219 L 11.199219 5.199219 Z M 7.199219 11.199219 C 7.199219 11.878906 6.679688 12.398438 6 12.398438 C 5.320312 12.398438 4.800781 11.878906 4.800781 11.199219 C 4.800781 10.519531 5.320312 10 6 10 C 6.679688 10 7.199219 10.519531 7.199219 11.199219 Z M 13.199219 11.199219 C 13.199219 11.878906 12.679688 12.398438 12 12.398438 C 11.320312 12.398438 10.800781 11.878906 10.800781 11.199219 C 10.800781 10.519531 11.320312 10 12 10 C 12.679688 10 13.199219 10.519531 13.199219 11.199219 Z M 18 12.398438 C 17.320312 12.398438 16.800781 11.878906 16.800781 11.199219 C 16.800781 10.519531 17.320312 10 18 10 C 18.679688 10 19.199219 10.519531 19.199219 11.199219 C 19.199219 11.878906 18.679688 12.398438 18 12.398438 Z M 18 12.398438"/>
</svg>

<svg xmlns="http://www.w3.org/2000/svg" width="32" height="32" viewBox="0 0 24 24">
    <path d="M22.2.8H1.8C.8.8 0 1.603 0 2.603v14c0 1 .8 1.796 1.8 1.796h7.68l-.601 2.403H8.8c-1.121 0-2 .879-2 2 0 .238.16.398.398.398h9.602c.238 0 .398-.16.398-.398 0-1.121-.879-2-2-2h-.078l-.601-2.403h7.68c1 0 1.8-.796 1.8-1.796v-14c0-1-.8-1.801-1.8-1.801zM.8 2.603c0-.563.438-1 1-1h20.4c.562 0 1 .437 1 1v11.796H.8zm15.56 19.796H7.68c.16-.476.601-.796 1.12-.796h6.438c.524 0 .961.32 1.121.796zm-2.079-1.597H9.72l.601-2.403h3.36zm8.918-4.2a.99.99 0 0 1-1 1H1.801a.99.99 0 0 1-1-1V15.2h22.398zm0 0"/>
    <path d="M18.398 9.238V7.602h-6V6h1.204V2.8h-3.204V6h1.204v1.602h-6v1.636C4.676 9.418 4 10.218 4 11.2c0 1.121.879 2 2 2s2-.879 2-2c0-.98-.676-1.781-1.602-1.96v-.84h5.204v.84c-.926.179-1.602.98-1.602 1.96 0 1.121.879 2 2 2s2-.879 2-2c0-.98-.676-1.781-1.602-1.96v-.84h5.204v.84c-.926.179-1.602.98-1.602 1.96 0 1.121.879 2 2 2s2-.879 2-2c0-.98-.676-1.781-1.602-1.96zM11.2 3.602h1.602v1.597h-1.602zm-4 7.597c0 .68-.52 1.2-1.199 1.2-.68 0-1.2-.52-1.2-1.2C4.8 10.52 5.32 10 6 10c.68 0 1.2.52 1.2 1.2zm6 0c0 .68-.52 1.2-1.199 1.2-.68 0-1.2-.52-1.2-1.2 0-.68.52-1.199 1.2-1.199.68 0 1.2.52 1.2 1.2zM18 12.4c-.68 0-1.2-.52-1.2-1.2 0-.68.52-1.199 1.2-1.199.68 0 1.2.52 1.2 1.2 0 .679-.52 1.198-1.2 1.198zm0 0"/>
</svg>
